X: 111
T:En Tournante de Viellee
M:2/4
L:1/8
S:Traditional via Massif Village Orchestra
R:Polka
K:C
|: B>d Ad | Gec2 | AB/c/ d>c | BAd2 | B>d Ad | Gec2 |
AB/c/ d/e/d/c/ | B/c/B/2A/ G2 :: gf/g/ ag | fee2 |
ed/e/ fd | Bdg2 | gf/g/ ag | fee2 | ed/e/ fd | Bd c2 :|
<end>
<start>
